X: 3626
T: Bill Martin's
R: slide
M: 12/8
K: Dmajor
a3 a2f b3 b2f|a2f efe a2f def|a3 a2f b3 b2f|
[1 a2f efe dec def:|2 a2f efe d3 dec||
B3Bcd A3Ade|f2e f2e f2g a3|B3Bcd A3Adf|
[1 a2f efe dec dec:|2 a2f efe d3 def||

